X: 189
T: Old Dutch Churn
T: Jig, G Dorian
L: 1/16
M: 6/8
K: G Dorian
|: A2| B6 d6| G4d2 d2c2B2| A6 c6| F4c2 c2B2A2| B6 d6| G4d2 d2c2B2| d2e2f2 c2B2A2| G6 G4:| 
|: a2| b6 g6| b4g2 g2f2d2| a6 f6| f2g2f2 a2g2f2| [1 b6 g6| b4g2 g2f2e2| f2d2B2 B2d2f2| g6 g4a2:| 
[2 b6 g6| a4f2 g2f2c2| d2e2f2 c2B2A2| G6 G4:|
